X: 35855
T: Samon Tail
R: reel
M: 4/4
K: Edorian
|:EBBA BEEB|EBBA FDAF|EBBA BEEB|efdB FDAF:|
|:gebg fddf|gebe gebe|gebe fddf|gefd ecdB|cABG AFFA:|

